packages/astro-components-stencil/src/icons/snooze.svg

<svg width="24" height="24" viewBox="0 0 24 24" fill="none" xmlns="http://www.w3.org/2000/svg">
<path fill-rule="evenodd" clip-rule="evenodd" d="M4.10001 6.55002C3.68001 6.90002 3.05001 6.85002 2.70001 6.42002C2.34001 6.00002 2.40001 5.37002 2.82001 5.01002L5.90001 2.45002C6.32001 2.10002 6.95001 2.15002 7.30001 2.58002C7.66001 3.00002 7.60001 3.63002 7.17001 3.99002L4.10001 6.55002ZM21.3 6.42002C20.95 6.84002 20.32 6.90002 19.89 6.55002L16.82 3.99002C16.4 3.63002 16.34 3.00002 16.7 2.58002C17.05 2.16002 17.68 2.10002 18.11 2.45002L21.18 5.01002C21.6 5.37002 21.66 6.00002 21.3 6.42002ZM10 11H12.63L8.91001 15.35C8.36001 16 8.82001 17 9.67001 17H14C14.55 17 15 16.55 15 16C15 15.45 14.55 15 14 15H11.37L15.09 10.65C15.64 10 15.18 9.00002 14.33 9.00002H10C9.45001 9.00002 9.00001 9.45002 9.00001 10C9.00001 10.55 9.45001 11 10 11ZM12 6.00002C15.86 6.00002 19 9.14002 19 13C19 16.86 15.86 20 12 20C8.14001 20 5.00001 16.86 5.00001 13C5.00001 9.14002 8.14001 6.00002 12 6.00002ZM3.00001 13C3.00001 8.03002 7.03001 4.00002 12 4.00002C16.97 4.00002 21 8.03002 21 13C21 17.97 16.97 22 12 22C7.03001 22 3.00001 17.97 3.00001 13Z" fill="black"/>
</svg>

<svg xmlns="http://www.w3.org/2000/svg" viewBox="0 0 24 24"><g xmlns="http://www.w3.org/2000/svg" id="snooze" fill-rule="nonzero">
            <path d="M10 11h2.63l-3.72 4.35C8.36 16 8.82 17 9.67 17H14c.55 0 1-.45 1-1s-.45-1-1-1h-2.63l3.72-4.35c.55-.65.09-1.65-.76-1.65H10c-.55 0-1 .45-1 1s.45 1 1 1zm11.3-4.58c-.35.42-.98.48-1.41.13l-3.07-2.56a1 1 0 01-.12-1.41c.35-.42.98-.48 1.41-.13l3.07 2.56a1 1 0 01.12 1.41zm-18.6 0c.35.43.98.48 1.4.13l3.07-2.56c.43-.36.49-.99.13-1.41a.988.988 0 00-1.4-.13L2.82 5.01a1 1 0 00-.12 1.41zM12 6c3.86 0 7 3.14 7 7s-3.14 7-7 7-7-3.14-7-7 3.14-7 7-7zm0-2a9 9 0 10.001 18.001A9 9 0 0012 4z"/>
        </g></svg>
